X:0389
M:6/8
L:1/8
Q:3/8=120
K:D
dFF FAB|BGE  EFE|dFF FED|   d2d def |
dFF FAB|BGE  EFE|DEF dFF|[1 A3  d3 :|\
                         [2 A3  A3 ||
dFF dFF|BGE  BGE|dFF dFF|   d3  def |
dFF dFF|BGE  BGE|DEF dFF|[1 A3  d3 :|\
                         [2 A3  A3 ||
ece ece|fdf  fdf|ece ece|   f2g a3  |
aff gee|fdd  cBA|dFF FEF|   d3  def:|

